!!!SOCIAL_FUNCTION:	memorial ceremony songs
!!!PDT:	1932
!!!OTL: No_27_The_Illness_of_the_Superman.krn
!!!REG: Southwest
!!!LANG: Non-Tone
!!!LING_GROUP: Yuman-Cochimi
**kern	**kern
*staff2	*staff1
=1-	=1-
*clefF4	*clefF4
*k[b-]	*k[b-]
*M2/4	*M2/4
8GG/L	4A\
8GG/J	.
8GG/L	8A\L
8GG/J	8A\J
=2	=2
8GG/L	4A\
8GG/J	.
8GG/L	8G\
8GG/J	16r
.	16F\
=3!|:	=3!|:
2r	8A\L
.	8G\J
.	8A\L
.	8B-\J
=4	=4
2r	4A\
.	16G\
.	16r
.	8F\
=5	=5
2r	(8A\L
.	8F\J)
.	8G\L
.	8A\J
=6	=6
2r	16G\LL
.	16F\J
.	8F\J
.	8F\
.	16r
.	16F\
=7	=7
2r	8G\L
.	8F\J
.	8F\L
.	8F\J
=8	=8
2r	4F\
.	8r
.	8F\
=9	=9
2r	8A\L
.	8F\J
.	8G\L
.	8A\J
=10	=10
2r	16G\LL
.	16F\J
.	8F\J
.	8F\
.	16r
.	16F\
=11	=11
2r	8G\L
.	8F\J
.	8F\L
.	8F\J
=12	=12
2r	4F\
.	4r
=13	=13
2r	8A\L
.	8G\J
.	8A\L
.	8B-\J
=14	=14
2r	4A\
.	8G\
.	8r
=15	=15
2r	8A\L
.	8G\J
.	8A\L
.	8B-\J
=16	=16
2r	4A\
.	8G\
.	16r
.	16F\
=17	=17
2r	8A\L
.	8F\J
.	8G\L
.	8A\J
=18	=18
2r	16G\LL
.	16F\J
.	8F\J
.	8F\
.	16r
.	16F\
=19	=19
2r	8G\L
.	8F\J
.	8F\L
.	8F\J
=20	=20
2r	4F\
.	8.r
.	16F\
=21	=21
2r	8A\L
.	8F\J
.	8G\L
.	8A\J
=22	=22
2r	16G\LL
.	16F\J
.	8F\J
.	8F\
.	16r
.	16F\
=23	=23
2r	8G\L
.	8F\J
.	8F\L
.	8F\J
=24	=24
2r	4F\
.	4r
==:|!	==:|!
*-	*-
